X:425
T:B425-  She Lay All Naked in Her Bed
S:Malcolm Douglas <malcolm.douglas:blueyonder.co.uk> tradtunes 2005-7-5
Q:1/4=60
L:1/4
M:4/4
K:C
zGcd | e3/2 d/ f/e/ d/c/ | B3/2 c/ d/e/ d/c/ | BA(G2 |\
G)d/c/ B3/2 B/ | cde3/2 f/ | g3a | B/A/ B/c/ d2 | zee3/2 f/ |
gfed | f3/2 A/ B/c/ d/e/ | ^c3/2 d/d2 |\
gg/f/eB | c/d/ e/d/ e3/2 e/ | fg/f/ed | .c4 |]
